X:117
T:ALKNMK- Alknomook
S:Ritson's The Scottish Songs
Q:1/4=100
L:1/4
M:C
K:Eb
B|BG3/4 A/4 Bc3/4 B/4|{B/}AF3/4 F/4 F F3/4G/4|\
A3/2 F/4G/4 A/ c/ B3/4 A/4|GE3/4 E/4 Ez/D/|\
FF3/4 F/4 F/4 G3/4 G3/4E/4|D/4B,3/4 B,/ B,/ B, D3/4 E/4|\
FF/G/ A/ c/ B/ z/4 =A/4|GE3/4 E/4 E|]

